X: 1
T: Connaughtman's Rambles, The
M: 6/8
L: 1/8
K: D
FAA dAA|BAB dAG|FAA def|edB BAG|
FAA dAA|BAB def|gfe dfe|1 dBA BAG:|2 dBA B2 g||
fbb faa|fef deg|fbb faa|fed e2 g|
fbb faa|fef def|gfe dfe|1 dBA B2 g:|2 dBA BAG||
